storage/app/icons/phosphoricons/regular/lamp-pendant.svg

<svg xmlns="http://www.w3.org/2000/svg" fill="currentColor" viewBox="0 0 256 256"><path d="M176 74.78V72a16 16 0 0 0-16-16h-24V16a8 8 0 0 0-16 0v40H96a16 16 0 0 0-16 16v2.78A111.73 111.73 0 0 0 16 176a8 8 0 0 0 8 8h64a40 40 0 0 0 80 0h64a8 8 0 0 0 8-8 111.73 111.73 0 0 0-64-101.22M128 208a24 24 0 0 1-24-24h48a24 24 0 0 1-24 24m-95.67-40a95.79 95.79 0 0 1 58.75-80.65A8 8 0 0 0 96 80v-8h64v8a8 8 0 0 0 4.92 7.38A95.79 95.79 0 0 1 223.67 168Z"/></svg>

<svg xmlns="http://www.w3.org/2000/svg" viewBox="0 0 256 256" fill="currentColor"><path d="M176,74.78V72a16,16,0,0,0-16-16H136V16a8,8,0,0,0-16,0V56H96A16,16,0,0,0,80,72v2.78A111.73,111.73,0,0,0,16,176a8,8,0,0,0,8,8H88a40,40,0,0,0,80,0h64a8,8,0,0,0,8-8A111.73,111.73,0,0,0,176,74.78ZM128,208a24,24,0,0,1-24-24h48A24,24,0,0,1,128,208ZM32.33,168A95.79,95.79,0,0,1,91.08,87.35,8,8,0,0,0,96,80V72h64v8a8,8,0,0,0,4.92,7.38A95.79,95.79,0,0,1,223.67,168Z"/></svg>
